teeny/solid/gif.svg

<svg width="15" height="15" viewBox="0 0 15 15" fill="none" xmlns="http://www.w3.org/2000/svg">
<path fill-rule="evenodd" clip-rule="evenodd" d="M1 1.5C1 0.671573 1.67157 0 2.5 0H10.7071L14 3.29289V13.5C14 14.3284 13.3284 15 12.5 15H2.5C1.67157 15 1 14.3284 1 13.5V1.5ZM2 11V6H5V7H3V10H4V8.5H5V11H2ZM8 7H9V6H6V7H7V10H6V11H9V10H8V7ZM13 6V7H11V8H12V9H11V11H10V6H13Z" fill="black"/>
</svg>

<svg viewBox="0 0 15 15" xmlns="http://www.w3.org/2000/svg"><path fill-rule="evenodd" d="M1 1.5C1 .67 1.67 0 2.5 0h8.2l3.29 3.29v10.2c0 .82-.68 1.5-1.5 1.5h-10c-.83 0-1.5-.68-1.5-1.5v-12ZM2 11V6h3v1H3v3h1V8.5h1V11H2Zm6-4h1V6H6v1h1v3H6v1h3v-1H8V7Zm5-1v1h-2v1h1v1h-1v2h-1V6h3Z"/></svg>
